school/img/country/IQ.svg

<svg width="13" height="12" viewBox="0 0 13 12" fill="none" xmlns="http://www.w3.org/2000/svg">
<rect x="0.25" y="0.25" width="12.5" height="11.5" rx="1.75" fill="white" stroke="#F5F5F5" stroke-width="0.5"/>
<mask id="mask0" mask-type="alpha" maskUnits="userSpaceOnUse" x="0" y="0" width="13" height="12">
<rect x="0.25" y="0.25" width="12.5" height="11.5" rx="1.75" fill="white" stroke="white" stroke-width="0.5"/>
</mask>
<g mask="url(#mask0)">
<path fill-rule="evenodd" clip-rule="evenodd" d="M0 4H13V0H0V4Z" fill="#DF1E35"/>
<path fill-rule="evenodd" clip-rule="evenodd" d="M0 12H13V8H0V12Z" fill="#262626"/>
<path fill-rule="evenodd" clip-rule="evenodd" d="M8.66675 5.36851C8.66675 5.1233 8.9383 4.97545 9.14426 5.10853V5.10853C9.2325 5.16555 9.2858 5.26344 9.2858 5.36851V6.89046C9.2858 7.06141 9.14722 7.19999 8.97627 7.19999V7.19999C8.80533 7.19999 8.66675 7.06141 8.66675 6.89046V5.36851Z" fill="#0F7A40"/>
<path fill-rule="evenodd" clip-rule="evenodd" d="M4.95239 5.36851C4.95239 5.1233 5.22394 4.97545 5.4299 5.10853V5.10853C5.51815 5.16555 5.57144 5.26344 5.57144 5.36851V6.89046C5.57144 7.06141 5.43286 7.19999 5.26192 7.19999V7.19999C5.09097 7.19999 4.95239 7.06141 4.95239 6.89046V5.36851Z" fill="#0F7A40"/>
<path fill-rule="evenodd" clip-rule="evenodd" d="M7.42859 5.3685C7.42859 5.26344 7.48188 5.16555 7.57013 5.10853V5.10853C7.77608 4.97545 8.04764 5.1233 8.04764 5.3685V6.89046C8.04764 7.06141 7.90906 7.19999 7.73811 7.19999V7.19999C7.56717 7.19999 7.42859 7.06141 7.42859 6.89046V5.3685Z" fill="#0F7A40"/>
<path fill-rule="evenodd" clip-rule="evenodd" d="M6.19043 6.16853C6.19043 6.06346 6.24373 5.96557 6.33197 5.90855V5.90855C6.53793 5.77547 6.80948 5.92332 6.80948 6.16853V6.43584H7.73805V7.20001H6.80948H6.52376C6.33967 7.20001 6.19043 7.05077 6.19043 6.86668V6.16853Z" fill="#0F7A40"/>
<path fill-rule="evenodd" clip-rule="evenodd" d="M3.71423 6.16853C3.71423 6.06346 3.76753 5.96557 3.85577 5.90855V5.90855C4.06173 5.77547 4.33328 5.92332 4.33328 6.16853V6.43584H5.26185V7.20001H4.33328H4.04757C3.86347 7.20001 3.71423 7.05077 3.71423 6.86668V6.16853Z" fill="#0F7A40"/>
</g>
</svg>

<svg width="13" height="12" fill="none" xmlns="http://www.w3.org/2000/svg"><rect x=".25" y=".25" width="12.5" height="11.5" rx="1.75" fill="#fff" stroke="#F5F5F5" stroke-width=".5"/><mask id="a" maskUnits="userSpaceOnUse" x="0" y="0" width="13" height="12"><rect x=".25" y=".25" width="12.5" height="11.5" rx="1.75" fill="#fff" stroke="#fff" stroke-width=".5"/></mask><g mask="url(#a)" fill-rule="evenodd" clip-rule="evenodd"><path d="M0 4h13V0H0v4z" fill="#DF1E35"/><path d="M0 12h13V8H0v4z" fill="#262626"/><path d="M8.667 5.369a.31.31 0 01.619 0V6.89a.31.31 0 11-.619 0V5.37zm-3.715 0a.31.31 0 11.619 0V6.89a.31.31 0 11-.619 0V5.37zm2.477 0a.31.31 0 01.619 0V6.89a.31.31 0 11-.619 0V5.368z" fill="#0F7A40"/><path d="M6.19 6.169a.31.31 0 11.619 0v.267h.93V7.2H6.523a.333.333 0 01-.334-.333v-.698zm-2.476 0a.31.31 0 11.62 0v.267h.928V7.2H4.048a.333.333 0 01-.334-.333v-.698z" fill="#0F7A40"/></g></svg>
